resources/icons/20px/buggy.svg

<svg width="20" height="20" viewBox="0 0 20 20" fill="none" xmlns="http://www.w3.org/2000/svg">
<path d="M15.836 1.014C16.0468 0.979014 16.2633 1.01247 16.4537 1.10947C16.6441 1.20647 16.7984 1.36191 16.894 1.553L19.376 6.515L19.396 6.511C19.4689 6.49549 19.5444 6.49649 19.6169 6.51392C19.6894 6.53136 19.7571 6.56479 19.815 6.61177C19.8729 6.65875 19.9196 6.71808 19.9516 6.78543C19.9836 6.85278 20.0001 6.92643 20 7.001V11.501C20 11.6336 19.9473 11.7608 19.8536 11.8546C19.7598 11.9483 19.6326 12.001 19.5 12.001H15.57C15.3232 12.0009 15.0801 12.0617 14.8624 12.1781C14.6447 12.2944 14.4591 12.4627 14.322 12.668L12.916 14.778C12.8703 14.8464 12.8084 14.9024 12.7358 14.9411C12.6632 14.9798 12.5823 15.0001 12.5 15H8C7.9343 15.0001 7.86921 14.9873 7.80847 14.9622C7.74773 14.9372 7.69252 14.9004 7.646 14.854L5.232 12.439C4.9508 12.158 4.56955 12.0001 4.172 12H0.5C0.367392 12 0.240215 11.9473 0.146447 11.8536C0.0526784 11.7598 0 11.6326 0 11.5V8.5C0 8.36739 0.0526784 8.24021 0.146447 8.14644C0.240215 8.05268 0.367392 8 0.5 8H1.323L3.072 3.63C3.1358 3.4705 3.23961 3.33012 3.37343 3.2224C3.50724 3.11468 3.66655 3.04325 3.836 3.015L15.836 1.014ZM16.125 4.486L14.598 7.539L17.356 6.948L16.125 4.486ZM14.5 3.264L11.863 3.703L12.688 5.746L12.94 6.384L14.5 3.264ZM4.72 4.894L3.477 8H4.5C4.56577 8.00001 4.6309 8.013 4.69165 8.03823C4.75239 8.06345 4.80756 8.10042 4.854 8.147L7.707 11H10.232L11.729 8.755L10.83 6.485L9.842 4.04L4.72 4.894ZM3 19C2.20435 19 1.44129 18.6839 0.87868 18.1213C0.31607 17.5587 0 16.7956 0 16C0 15.2043 0.31607 14.4413 0.87868 13.8787C1.44129 13.3161 2.20435 13 3 13C3.79565 13 4.55871 13.3161 5.12132 13.8787C5.68393 14.4413 6 15.2043 6 16C6 16.7956 5.68393 17.5587 5.12132 18.1213C4.55871 18.6839 3.79565 19 3 19ZM17 19C16.2044 19 15.4413 18.6839 14.8787 18.1213C14.3161 17.5587 14 16.7956 14 16C14 15.2043 14.3161 14.4413 14.8787 13.8787C15.4413 13.3161 16.2044 13 17 13C17.7956 13 18.5587 13.3161 19.1213 13.8787C19.6839 14.4413 20 15.2043 20 16C20 16.7956 19.6839 17.5587 19.1213 18.1213C18.5587 18.6839 17.7956 19 17 19Z" fill="black"/>
</svg>

<svg xmlns="http://www.w3.org/2000/svg" viewBox="0 0 20 20">
  <path d="M15.836 1.014a1 1 0 0 1 1.058.539l2.482 4.962.02-.004a.5.5 0 0 1 .604.49v4.5a.5.5 0 0 1-.5.5h-3.93a1.5 1.5 0 0 0-1.248.667l-1.406 2.11A.5.5 0 0 1 12.5 15H8a.5.5 0 0 1-.354-.146l-2.414-2.415A1.5 1.5 0 0 0 4.172 12H.5a.5.5 0 0 1-.5-.5v-3A.5.5 0 0 1 .5 8h.823l1.749-4.37a1 1 0 0 1 .764-.615zm.289 3.472-1.527 3.053 2.758-.591zM14.5 3.264l-2.637.439.825 2.043.252.638zm-9.78 1.63L3.477 8H4.5a.5.5 0 0 1 .354.147L7.707 11h2.525l1.497-2.245-.899-2.27-.988-2.445zM3 19a3 3 0 1 1 0-6 3 3 0 0 1 0 6m14 0a3 3 0 1 1 0-6 3 3 0 0 1 0 6"/>
</svg>
